!!!ONB: MCCC : IMR0030_02 : Extracted Monophonic Melody
!!!COM: Ravel, Maurice
!!!OPR: Miroirs
!!!OMV: 2
!!!SCT: M.43
!!!ODT: 1903///
**kern
*staff1
*clefG2
*k[b-e-]
*B-:
*M3/4
4.bb-
=2
2.bb-[
=3
4.bb-]
4.bb-
=4
2.bb-[
=5
4.bb-]
16ff#
16ddd-
16fff
16eee-
8bb-[
=6
16bb-]
8.ee-
2aa-[
=7
4.aa-]
16ff#
16ddd-
16fff
16eee-
8bb-[
=8
16bb-]
8.ee-
2aa-[
=9
4.aa-]
4.ee-
=10
2.ee-
=11
4ee-
2ee-[
=12
2.ee-]
=13
2.r
=14
4r
8r
4.ee-
=15
2.ee-
=16
2.r
=17
4r
8r
4.ee-
=18
2.ee-
=19
4d
4d
4B-
=20
4B-
4d
4d
=21
4d
4d
4d
=22
4d
4d
4d
=23
4r
2B-[
=24
4.B-]
4.bb-
=25
2.bb-[
=26
4.bb-]
4.bb-
=27
2.bb-[
=28
2bb-]
8r
16ff#
16ddd-
=29
24fff
16eee-
48bb-
8bb-
4aa-
4aa-
=30
2.aa-[
=31
2aa-]
16r
16ff#
16ddd-
16fff
=32
16eee-
16bb-
8bb-
4aa-
4aa-
=33
2.aa-[
=34
2aa-]
4r
=35
4r
4ee-
4ee-[
=36
2.ee-]
=37
4ee-
2ee-[
=38
2.ee-]
=39
4g
4a
4g[
=40
4g]
4a
4g
=41
4r
4aa
4gg[
=42
4gg]
4aa
4gg
=43
4gg
4aa
4aa
=44
4aa
4aa
4aa
=45
4aa
4aa
4aa
=46
4aa
4aa
8gg
8aa
=47
2.r
=48
2.r
=49
8r
8aaa
4cccc
4f#[
=50
2.f#]
=51
8r
8aaa
4cccc
4f#
=52
2.f#
=53
2.f#[
=54
2.f#]
=55
32.ff
64eeee
16eeee
16eeee
16eeee
4eeee
4r
=56
16gg
16aa-
16eee
16aa-
16ee
16ff
16eee
16fff
16aa
16bb-
16aaa
16bbb-
=57
16ee
16ff
16eee
16ff
16bb
16ccc
16bbb
16ccc
16aa
16bb-
16aaa
16bb-
=58
16bb
16ccc
16bbb
16ccc
16aa
16bb-
16aaa
16bb-
16gg
16aa-
16ggg
16aaa-
=59
16ee
16ff
16eee
16ff
16b
16cc
16bb
16cc
16a
16b-
16aa
16b-
=60
16b
16cc
16bb
16cc
16a
16b-
16aa
16b-
16g
16a-
16gg
16aa-
=61
16e
16f
16ee
16f
16B
16c
16b
16c
16A
16B-
16a
16B-
=62
16E
16F
16e
16F
16BB
16C
16B
16C
16AA
16BB-
16A
16BB-
=63
16E
16E
16A-
16E
16F
16F
16G
16F
16BB
16E
16A-
16E
=64
4r
4.G
8A-
=65
4r
4.G
8A-
=66
4r
4.G
8A-[
=67
4A-]
4G
4A-[
=68
4A-]
4G
4A-[
=69
4A-]
4G
4A-[
=70
4A-]
4G
4A-[
=71
4A-]
4G
4A-[
=72
4A-]
4G
4A-
=73
4r
2a
=74
2.a[
=75
2.a]
=76
2.r
=77
4aa
2aa[
=78
2.aa]
=79
4aa
2aa[
=80
2.aa]
=81
4r
16ff
16ccc
16eee
16ddd
8.aa
16dd
=82
2.gg[
=83
2.gg]
=84
4r
16ff
16ccc
16eee
16ddd
8.aa
16dd
=85
2.gg[
=86
2.gg]
=87
4dd
2dd[
=88
2.dd]
=89
4dd
2dd[
=90
2.dd]
=91
4r
4r
8r
16r
16d
=92
12f#
12r
12e-
12f#
12r
12f#
12a
12r
12f#
=93
12b-
12r
12dd
12ff#
12r
12ee-
12ff#
12r
12ff#
=94
12aa
12r
12ff#
12bb-
12r
12ddd
12fff#
12r
12eee-
=95
12fff#
12r
12ddd
12fff#
12r
12eee-
12fff#
12r
12ddd
=96
12fff#
12r
12eee-
12fff#
12r
12ddd
12fff#
12r
12eee-
=97
12fff#
12r
12ddd
12fff#
12r
12eee-
12fff#
12r
12ddd
=98
12fff#
12r
12eee-
12fff#
12r
12ddd
12fff#
12r
12eee-
=99
12fff#
12r
12ddd
12fff#
12r
12eee-
12fff#
12r
12ddd
=100
12fff#
12r
12eee-
12fff#
24ccc
16eee
16bbb-
8aaa
8fff#
=101
12bb-
6fff[
16fff]
16gg
16bb
16fff#
8eee
8ddd-
=102
12gg
6eee-[
16eee-]
16ff
16aa
16eee
16ddd
16aa
16ff
16ddd-
=103
16aa-
16ff
16dd-
16a-
16f
32.B-
64d[
32d]
32a-[
64a-]
32.cc
24gg
24cc
24a-
24c
24GG
24D
=104
24A-
24B
24e
24B
24G
24F#
4F
4r
=105
2.r
=106
4r
4ee-
4ee-
=107
2.ee-[
=108
4ee-]
4r
4r
=109
2.r
=110
4r
4ee-
4ee-
=111
2.ee-[
=112
4ee-]
4r
4r
=113
2.r
=114
4r
4ee-
4ee-
=115
2.ee-[
=116
4ee-]
4r
4r
=117
2.r
=118
2.r
=119
2.d
=120
4B-
2c
=121
4r
4ee-
4ee-
=122
2.ee-[
=123
4ee-]
4r
4r
=124
2.r
=125
4r
4ee-
4ee-
=126
2.ee-[
=127
4ee-]
4r
4r
=128
4r
4ee-
4ee-
=129
2.ee-
=130
2.ee-[
=131
2ee-]
4r
==
*-
